public/avatar/item2/61.svg

<svg xmlns:xlink="http://www.w3.org/1999/xlink" height="99.2" width="82.2" xmlns="http://www.w3.org/2000/svg"><use height="16.2" transform="translate(10.9 67)" width="39.55" xlink:href="#a"/><defs><g id="a" fill-rule="evenodd"><path d="m13.85 24.35-.1-.4-1 .75.5.55.85-.75-.25-.15m-.65-3.05 2.85.05h.05l1.2-.7 1.1-.15q.55.15.85.65l.2.7-.05.35-.65.9-.25.15.25.7q0 .65-.55 1.1l-3.6 3.25q-.15.8-.7 1.25l-5.15 4.5q-1.7 1.55-3.25-.2l-1-1.15-2.55.75-.3 1.2q-.55 2.25-2.8 1.7l-7.9-1.95q-.95-.25-1.45-1.05l-.3-1.15.05-.55.05-.2-5.1-2.85q-.8-.45-1.05-1.45l-1.1-.9q-.95-.65-.95-2l.05-.35-.4-.25-.75-.7-.1-.6.05-.45q.55-1.35 1.85-.85l.1.05.85-.85 1.3.1 2.5 1.45q.75-.15 1.45.25l5.95 3.35q.65.35 1 1.2l5.9 1.45q1.2.3 1.55 1.65l-.05-.35q0-1.05.8-1.75l5.15-4.5q1.25-1.05 2.7-.2l2.2-1.6m-5.05 9.55 2.2-1.95-2-1.35-.35-.4-1.7 1.5 1.1.15q.55.35.8 1.05l.05.5-.1.5M-.8 30.6l-4.85-1.25-1.05 1.75-.8.8 5.45 1.35-.25-.45-.1-.45q0-1.3 1.3-1.7l.3-.05m-8.45-3.75-2.2-1.25-.45 1.6 1.95 1.1.15-.5.55-.95" transform="translate(20.1 -20.25)"/><path d="M1.2 34.55q-.45 1.85-2.25 1.4L-8.95 34q-1.85-.45-1.4-2.25l.95-3.85q.45-1.8 2.25-1.35l7.9 1.9q1.85.45 1.4 2.3l-.95 3.8M-.7 34l.9-3.6-7.7-1.9-.9 3.6L-.7 34" fill="#fdf200" transform="translate(20.1 -20.25)"/><path d="m11.25 23.6 2.55 2.95q1.25 1.4-.15 2.7l-5.2 4.5q-1.4 1.2-2.65-.2L3.25 30.6q-1.2-1.4.2-2.65l5.15-4.5q1.35-1.25 2.65.15M4.8 29.35l2.45 2.85 5-4.4L9.8 25l-5 4.35m-17-6.95 5.95 3.35q1.7.95.7 2.55l-1.5 2.55q-.9 1.7-2.55.75l-5.95-3.35q-1.65-.9-.75-2.55l1.5-2.55q.85-1.65 2.6-.75m3.5 7.1 1.4-2.05-5.8-3.25-1.35 2.05 5.75 3.25" fill="#fdf200" transform="translate(20.1 -20.25)"/><path d="m15.85 23.6-1.4-.7-4.1 3.15 1.65.8 3.85-3.25m-2.4-1.95 2.35.05 1.95 1.3q1.2.85.2 1.75l-4.25 3.8q-1.35 1.2-2.8.2L8.55 27.2q-1.35-1 .1-2.1l4.8-3.45m-7.25 7.4q1.25-.3 1.6.95.35 1.2-.9 1.6l-7.2 2q-1.25.35-1.6-.9-.4-1.3.9-1.6l7.2-2.05" fill="#fdf200" transform="translate(20.1 -20.25)"/><path d="M14.25 24.1q-.55-.8.35-1.35L17.5 21q.85-.5 1.4.35.45.9-.35 1.35l-2.95 1.75q-.9.55-1.35-.35m-33.9-2.05q.35-.95 1.3-.6l2.05 1.2q.95.4.6 1.3-.35.85-1.25.6l-2.1-1.25q-.95-.4-.6-1.25" fill="#fdf200" transform="translate(20.1 -20.25)"/><path d="m-16.6 23.05-.35 1.3 2.8 2 .25-1.6-2.7-1.7m.4-2.35 3.35 1.9q1.5.9 1.05 2.6l-.7 2.7q-.5 1.65-2.05.55l-3.15-2.5q-1.15-.9-.7-2.25l.6-2.25q.45-1.4 1.6-.75" fill="#fdf200" transform="translate(20.1 -20.25)"/><path d="m10.45 24.4-1.2.05-5.7 4 5.4-4.7 1.8.1 2 2.1q-1.25-1.25-2.3-1.55m-1.4 2.8.75-.3 1.75.8 1.6-.1q.65-.25 4.5-3.2l-4.1 3.55q-1.15.9-2.1.5l-2.4-1.25m6.6-5.25-.55.45-.85-.2-2.65 1.25L13.65 22l2-.05m-8.2 8.4-.5.5q.1-.35-.75-.6L-1 31.6l6.85-2 1.1-.05q.45.2.5.8m-5.8-.1-.5.1q.05-.85-.5-1-1-.4-7.9-1.75-.8-.15-1.4.55l-.4.7.3-1.1q.25-.8 1.85-.55l7.6 1.65q1.15.3.95 1.4m-9.85 2.8-.55-.65v-.45l.8.6 7.1 1.75-7.35-1.25m2.2-6.3-.8-.3q-.55-.6-5.8-3.7l5.7 3.1q.85.45.9.9" fill="#fdffd7" transform="translate(20.1 -20.25)"/><path d="m-6.4 28.95-.9 1.3q-.7.85-2.3.15l-5.65-3.05q-.6-.35-.3-1l1.1-1.6-.5 1.95 2.7 1.65 2.95 1.5 1.35-.1.65-.95.9.15" fill="#fdffd7" transform="translate(20.1 -20.25)"/><path d="m-12.65 27.2-.5-.25.55-2.35q.15-.4-.55-.95l-3.3-2.45 3.55 1.95q1.05.5.95 1.4l-.7 2.65m-3.7-3.1-.35-.9q-.05-.25-1.9-1.6l2.2 1.2q.8.45.05 1.3m34.9-1.7q-.45-.45-.85-.45l-2.95 1.2 2.75-1.75q.7-.4 1.1.15.3.35-.05.85" fill="#fdffd7" transform="translate(20.1 -20.25)"/><path d="m-10.1 31.5 1 .35-.3.45q-.15.5.3.85l8.2 2.55q-6.65-1.45-8.2-2.1-1-.4-1.1-1.3l.1-.8m8.55.9q.1-.4 1.4.3.9.1 6.4-1.2-5.1 1.7-6.4 1.85-.85.15-1.2-.4l-.2-.55m.15 1.85q.55.05 1.1-.5l1.4-.35q-.6 2.45-2.5.85m6.55-2.05.95-.3 1.65 1.05 3.25-2.6q.4-.4.05-1.4.9.65 1.95.4L8.35 33.3q-1 .8-1.85.2l-1.35-1.3m12.8-9q-1 1.25-2.8 2.05l-1.65.5 1.6-1.1q1.45-.7 2.85-1.45m-3.45.65q.7.2 3.45-1.1l-2.65 1.5-.8-.4M-3 28.95Q.35 29.6.2 30.4l-7.6-1.85 4.4.4m-11.2-4.4q-1.2-.15-2.2 2.05-.05-.85 1.2-2.65l1 .6m-2.25 1.2-.2.95-1.25-1.3q-.5-.7-.25-1.55l.85.6.15.55.7.75M-19.3 22l.35.6 1.7 1.3q-1-.25-1.7-.85-.75-.6-.35-1.05" fill="#fda900" transform="translate(20.1 -20.25)"/><path d="m-16.9 22.45 3.55 1.8q.5.35-.05 2.35l-.4-.15.25-1.85-3.35-2.15" fill="#fda900" transform="translate(20.1 -20.25)"/><path d="m1.85 33-.15.35-2.35.6-.2-.25 2.7-.7m2.7-.75 2.35-.65.2.15-2.5.95-.05-.45m-12.65-.5q.2.15 0 .3-.6.2-1.95-.4l-1.2-.6.9.15 2.25.55m-7.45-7.95 1.55 1q.2.25-.15 1.45l-.25-.2q.3-.9.15-1.1l-1.4-.9.1-.25m26.45 4.95 1.7.35 1.65-1.05.15.3q-1.3 1.1-1.9 1.15l-1.8-.45.2-.3" transform="translate(20.1 -20.25)"/><path d="m-12.25 27.45-2.2-1.25.15-.3 2.1 1.2-.05.35m-4.15-2.85q.25.1.15.25l-2.35-.9.15-.3q1.75 1.1 2.05.95m26.6 1.35.25-.25 1.65 1-1.9-.75" transform="translate(20.1 -20.25)"/></g></defs></svg>

<?xml version="1.0" encoding="UTF-8" standalone="no"?>
<svg xmlns:xlink="http://www.w3.org/1999/xlink" height="99.2px" width="82.2px" xmlns="http://www.w3.org/2000/svg">
  <g transform="matrix(1.0, 0.0, 0.0, 1.0, 31.0, 46.75)">
    <use height="16.2" transform="matrix(1.0, 0.0, 0.0, 1.0, -20.1, 20.25)" width="39.55" xlink:href="#shape0"/>
  </g>
  <defs>
    <g id="shape0" transform="matrix(1.0, 0.0, 0.0, 1.0, 20.1, -20.25)">
      <path d="M13.85 24.35 L13.75 23.95 12.75 24.7 13.25 25.25 14.1 24.5 13.85 24.35 M13.2 21.3 L16.05 21.35 16.1 21.35 17.3 20.65 18.4 20.5 Q18.95 20.65 19.25 21.15 L19.45 21.85 19.4 22.2 18.75 23.1 18.5 23.25 18.75 23.95 Q18.75 24.6 18.2 25.05 L14.6 28.3 Q14.45 29.1 13.9 29.55 L8.75 34.05 Q7.05 35.6 5.5 33.85 L4.5 32.7 1.95 33.45 1.65 34.65 Q1.1 36.9 -1.15 36.35 L-9.05 34.4 Q-10.0 34.15 -10.5 33.35 L-10.8 32.2 -10.75 31.65 -10.7 31.45 -15.8 28.6 Q-16.6 28.15 -16.85 27.15 L-17.95 26.25 Q-18.9 25.6 -18.9 24.25 L-18.85 23.9 -19.25 23.65 -20.0 22.95 -20.1 22.35 -20.05 21.9 Q-19.5 20.55 -18.2 21.05 L-18.1 21.1 -17.25 20.25 -15.95 20.35 -13.45 21.8 Q-12.7 21.65 -12.0 22.05 L-6.05 25.4 Q-5.4 25.75 -5.05 26.6 L0.85 28.05 Q2.05 28.35 2.4 29.7 L2.35 29.35 Q2.35 28.3 3.15 27.6 L8.3 23.1 Q9.55 22.05 11.0 22.9 L13.2 21.3 M8.15 30.85 L10.35 28.9 8.35 27.55 8.0 27.15 6.3 28.65 7.4 28.8 Q7.95 29.15 8.2 29.85 L8.25 30.35 8.15 30.85 M-0.8 30.6 L-5.65 29.35 -6.7 31.1 -7.5 31.9 -2.05 33.25 -2.3 32.8 -2.4 32.35 Q-2.4 31.05 -1.1 30.65 L-0.8 30.6 M-9.25 26.85 L-11.45 25.6 -11.9 27.2 -9.95 28.3 -9.8 27.8 -9.25 26.85" fill="#000000" fill-rule="evenodd" stroke="none"/>
      <path d="M1.2 34.55 Q0.75 36.4 -1.05 35.95 L-8.95 34.0 Q-10.8 33.55 -10.35 31.75 L-9.4 27.9 Q-8.95 26.1 -7.15 26.55 L0.75 28.45 Q2.6 28.9 2.15 30.75 L1.2 34.55 M-0.7 34.0 L0.2 30.4 -7.5 28.5 -8.4 32.1 -0.7 34.0" fill="#fdf200" fill-rule="evenodd" stroke="none"/>
      <path d="M11.25 23.6 L13.8 26.55 Q15.05 27.95 13.65 29.25 L8.45 33.75 Q7.05 34.95 5.8 33.55 L3.25 30.6 Q2.05 29.2 3.45 27.95 L8.6 23.45 Q9.95 22.2 11.25 23.6 M4.8 29.35 L7.25 32.2 12.25 27.8 9.8 25.0 4.8 29.35" fill="#fdf200" fill-rule="evenodd" stroke="none"/>
      <path d="M-12.2 22.4 L-6.25 25.75 Q-4.55 26.7 -5.55 28.3 L-7.05 30.85 Q-7.95 32.55 -9.6 31.6 L-15.55 28.25 Q-17.2 27.35 -16.3 25.7 L-14.8 23.15 Q-13.95 21.5 -12.2 22.4 M-8.7 29.5 L-7.3 27.45 -13.1 24.2 -14.45 26.25 -8.7 29.5" fill="#fdf200" fill-rule="evenodd" stroke="none"/>
      <path d="M15.85 23.6 L14.45 22.9 10.35 26.05 12.0 26.85 15.85 23.6 M13.45 21.65 L15.8 21.7 17.75 23.0 Q18.95 23.85 17.95 24.75 L13.7 28.55 Q12.35 29.75 10.9 28.75 L8.55 27.2 Q7.2 26.2 8.65 25.1 L13.45 21.65" fill="#fdf200" fill-rule="evenodd" stroke="none"/>
      <path d="M6.2 29.05 Q7.45 28.75 7.8 30.0 8.15 31.2 6.9 31.6 L-0.3 33.6 Q-1.55 33.95 -1.9 32.7 -2.3 31.4 -1.0 31.1 L6.2 29.05" fill="#fdf200" fill-rule="evenodd" stroke="none"/>
      <path d="M14.25 24.1 Q13.7 23.3 14.6 22.75 L17.5 21.0 Q18.35 20.5 18.9 21.35 19.35 22.25 18.55 22.7 L15.6 24.45 Q14.7 25.0 14.25 24.1" fill="#fdf200" fill-rule="evenodd" stroke="none"/>
      <path d="M-19.65 22.05 Q-19.3 21.1 -18.35 21.45 L-16.3 22.65 Q-15.35 23.05 -15.7 23.95 -16.05 24.8 -16.95 24.55 L-19.05 23.3 Q-20.0 22.9 -19.65 22.05" fill="#fdf200" fill-rule="evenodd" stroke="none"/>
      <path d="M-16.6 23.05 L-16.95 24.35 -14.15 26.35 -13.9 24.75 -16.6 23.05 M-16.2 20.7 L-12.85 22.6 Q-11.35 23.5 -11.8 25.2 L-12.5 27.9 Q-13.0 29.55 -14.55 28.45 L-17.7 25.95 Q-18.85 25.05 -18.4 23.7 L-17.8 21.45 Q-17.35 20.05 -16.2 20.7" fill="#fdf200" fill-rule="evenodd" stroke="none"/>
      <path d="M10.45 24.4 L9.25 24.45 3.55 28.45 8.95 23.75 10.75 23.85 12.75 25.95 Q11.5 24.7 10.45 24.4" fill="#fdffd7" fill-rule="evenodd" stroke="none"/>
      <path d="M9.05 27.2 L9.8 26.9 11.55 27.7 13.15 27.6 Q13.8 27.35 17.65 24.4 L13.55 27.95 Q12.4 28.85 11.45 28.45 L9.05 27.2" fill="#fdffd7" fill-rule="evenodd" stroke="none"/>
      <path d="M15.65 21.95 L15.1 22.4 14.25 22.2 11.6 23.45 13.65 22.0 15.65 21.95" fill="#fdffd7" fill-rule="evenodd" stroke="none"/>
      <path d="M7.45 30.35 L6.95 30.85 Q7.05 30.5 6.2 30.25 L-1.0 31.6 5.85 29.6 6.95 29.55 Q7.4 29.75 7.45 30.35" fill="#fdffd7" fill-rule="evenodd" stroke="none"/>
      <path d="M1.65 30.25 L1.15 30.35 Q1.2 29.5 0.65 29.35 -0.35 28.95 -7.25 27.6 -8.05 27.45 -8.65 28.15 L-9.05 28.85 -8.75 27.75 Q-8.5 26.95 -6.9 27.2 L0.7 28.85 Q1.85 29.15 1.65 30.25" fill="#fdffd7" fill-rule="evenodd" stroke="none"/>
      <path d="M-8.2 33.05 L-8.75 32.4 -8.75 31.95 -7.95 32.55 -0.85 34.3 -8.2 33.05" fill="#fdffd7" fill-rule="evenodd" stroke="none"/>
      <path d="M-6.0 26.75 L-6.8 26.45 Q-7.35 25.85 -12.6 22.75 L-6.9 25.85 Q-6.05 26.3 -6.0 26.75" fill="#fdffd7" fill-rule="evenodd" stroke="none"/>
      <path d="M-6.4 28.95 L-7.3 30.25 Q-8.0 31.1 -9.6 30.4 L-15.25 27.35 Q-15.85 27.0 -15.55 26.35 L-14.45 24.75 -14.95 26.7 -12.25 28.35 -9.3 29.85 -7.95 29.75 -7.3 28.8 -6.4 28.95" fill="#fdffd7" fill-rule="evenodd" stroke="none"/>
      <path d="M-12.65 27.2 L-13.15 26.95 -12.6 24.6 Q-12.45 24.2 -13.15 23.65 L-16.45 21.2 -12.9 23.15 Q-11.85 23.65 -11.95 24.55 L-12.65 27.2" fill="#fdffd7" fill-rule="evenodd" stroke="none"/>
      <path d="M-16.35 24.1 L-16.7 23.2 Q-16.75 22.95 -18.6 21.6 L-16.4 22.8 Q-15.6 23.25 -16.35 24.1" fill="#fdffd7" fill-rule="evenodd" stroke="none"/>
      <path d="M18.55 22.4 Q18.1 21.95 17.7 21.95 L14.75 23.15 17.5 21.4 Q18.2 21.0 18.6 21.55 18.9 21.9 18.55 22.4" fill="#fdffd7" fill-rule="evenodd" stroke="none"/>
      <path d="M-10.1 31.5 L-9.1 31.85 -9.4 32.3 Q-9.55 32.8 -9.1 33.15 L-0.9 35.7 Q-7.55 34.25 -9.1 33.6 -10.1 33.2 -10.2 32.3 L-10.1 31.5" fill="#fda900" fill-rule="evenodd" stroke="none"/>
      <path d="M-1.55 32.4 Q-1.45 32.0 -0.15 32.7 0.75 32.8 6.25 31.5 1.15 33.2 -0.15 33.35 -1.0 33.5 -1.35 32.95 L-1.55 32.4" fill="#fda900" fill-rule="evenodd" stroke="none"/>
      <path d="M-1.4 34.25 Q-0.85 34.3 -0.3 33.75 L1.1 33.4 Q0.5 35.85 -1.4 34.25" fill="#fda900" fill-rule="evenodd" stroke="none"/>
      <path d="M5.15 32.2 L6.1 31.9 7.75 32.95 11.0 30.35 Q11.4 29.95 11.05 28.95 11.95 29.6 13.0 29.35 L8.35 33.3 Q7.35 34.1 6.5 33.5 L5.15 32.2" fill="#fda900" fill-rule="evenodd" stroke="none"/>
      <path d="M17.95 23.2 Q16.95 24.45 15.15 25.25 L13.5 25.75 15.1 24.65 Q16.55 23.95 17.95 23.2" fill="#fda900" fill-rule="evenodd" stroke="none"/>
      <path d="M14.5 23.85 Q15.2 24.05 17.95 22.75 L15.3 24.25 14.5 23.85" fill="#fda900" fill-rule="evenodd" stroke="none"/>
      <path d="M-3.0 28.95 Q0.35 29.6 0.2 30.4 L-7.4 28.55 -3.0 28.95" fill="#fda900" fill-rule="evenodd" stroke="none"/>
      <path d="M-14.2 24.55 Q-15.4 24.4 -16.4 26.6 -16.45 25.75 -15.2 23.95 L-14.2 24.55" fill="#fda900" fill-rule="evenodd" stroke="none"/>
      <path d="M-16.45 25.75 L-16.65 26.7 -17.9 25.4 Q-18.4 24.7 -18.15 23.85 L-17.3 24.45 -17.15 25.0 -16.45 25.75" fill="#fda900" fill-rule="evenodd" stroke="none"/>
      <path d="M-19.3 22.0 L-18.95 22.6 -17.25 23.9 Q-18.25 23.65 -18.95 23.05 -19.7 22.45 -19.3 22.0" fill="#fda900" fill-rule="evenodd" stroke="none"/>
      <path d="M-16.9 22.45 L-13.35 24.25 Q-12.85 24.6 -13.4 26.6 L-13.8 26.45 -13.55 24.6 -16.9 22.45" fill="#fda900" fill-rule="evenodd" stroke="none"/>
      <path d="M1.85 33.0 L1.7 33.35 -0.65 33.95 -0.85 33.7 1.85 33.0" fill="#000000" fill-rule="evenodd" stroke="none"/>
      <path d="M4.55 32.25 L6.9 31.6 7.1 31.75 4.6 32.7 4.55 32.25" fill="#000000" fill-rule="evenodd" stroke="none"/>
      <path d="M-8.1 31.75 Q-7.9 31.9 -8.1 32.05 -8.7 32.25 -10.05 31.65 L-11.25 31.05 -10.35 31.2 -8.1 31.75" fill="#000000" fill-rule="evenodd" stroke="none"/>
      <path d="M-15.55 23.8 L-14.0 24.8 Q-13.8 25.05 -14.15 26.25 L-14.4 26.05 Q-14.1 25.15 -14.25 24.95 L-15.65 24.05 -15.55 23.8" fill="#000000" fill-rule="evenodd" stroke="none"/>
      <path d="M10.9 28.75 L12.6 29.1 14.25 28.05 14.4 28.35 Q13.1 29.45 12.5 29.5 L10.7 29.05 10.9 28.75" fill="#000000" fill-rule="evenodd" stroke="none"/>
      <path d="M-12.25 27.45 L-14.45 26.2 -14.3 25.9 -12.2 27.1 -12.25 27.45" fill="#000000" fill-rule="evenodd" stroke="none"/>
      <path d="M-16.4 24.6 Q-16.15 24.7 -16.25 24.85 L-18.6 23.95 -18.45 23.65 Q-16.7 24.75 -16.4 24.6" fill="#000000" fill-rule="evenodd" stroke="none"/>
      <path d="M10.2 25.95 L10.45 25.7 12.1 26.7 10.2 25.95" fill="#000000" fill-rule="evenodd" stroke="none"/>
    </g>
  </defs>
</svg>
